X:55
T:Slow Scotch Troop
M:2/4
L:1/8
K:G
Q:1/4=90
%%MIDI channel 1
%%MIDI program 72
%%MIDI transpose 8
%%MIDI ratio 3 1
D|G2 GA|G2 D2|GA BA|G4|\
d2 ef|g2 d2|B>G A>F|G3|
D|G2 GA|G2 D2|GA BA|G4|\
d2 ef|g2 d2|de dc|B3 A|
G2 GA|G2 D2|GA BA|G4|\
d2 ef|g2 d2|B>G A>F|G3|

